Numix/16/status/indicator-keyboard-Ur-5.svg

<?xml version="1.0" encoding="UTF-8" standalone="no"?>
<svg
   xmlns:dc="http://purl.org/dc/elements/1.1/"
   xmlns:cc="http://creativecommons.org/ns#"
   xmlns:rdf="http://www.w3.org/1999/02/22-rdf-syntax-ns#"
   xmlns:svg="http://www.w3.org/2000/svg"
   xmlns="http://www.w3.org/2000/svg"
   xmlns:sodipodi="http://sodipodi.sourceforge.net/DTD/sodipodi-0.dtd"
   xmlns:inkscape="http://www.inkscape.org/namespaces/inkscape"
   viewBox="0 0 16 16"
   id="svg2"
   version="1.1"
   inkscape:version="0.91 r13725"
   sodipodi:docname="indicator-keyboard-Ur-5.svg">
  <metadata
     id="metadata14">
    <rdf:RDF>
      <cc:Work
         rdf:about="">
        <dc:format>image/svg+xml</dc:format>
        <dc:type
           rdf:resource="http://purl.org/dc/dcmitype/StillImage" />
      </cc:Work>
    </rdf:RDF>
  </metadata>
  <defs
     id="defs12" />
  <sodipodi:namedview
     pagecolor="#ffffff"
     bordercolor="#666666"
     borderopacity="1"
     objecttolerance="10"
     gridtolerance="10"
     guidetolerance="10"
     inkscape:pageopacity="0"
     inkscape:pageshadow="2"
     inkscape:window-width="459"
     inkscape:window-height="369"
     id="namedview10"
     showgrid="false"
     inkscape:zoom="14.75"
     inkscape:cx="8"
     inkscape:cy="8"
     inkscape:window-x="65"
     inkscape:window-y="24"
     inkscape:window-maximized="0"
     inkscape:current-layer="svg2" />
  <path
     style="fill:#ececec;fill-opacity:1"
     d="M 1.5996094 0 C 0.71320937 2.9605947e-16 0 0.71320937 0 1.5996094 L 0 14.400391 C 2.9605947e-16 15.286791 0.71320937 16 1.5996094 16 L 14.400391 16 C 15.286791 16 16 15.286791 16 14.400391 L 16 1.5996094 C 16 0.71320937 15.286791 0 14.400391 0 L 1.5996094 0 z M 2.2421875 4.859375 L 2.8535156 4.859375 L 2.8535156 8.7011719 C 2.8535156 9.0431719 2.8927031 9.34175 2.9707031 9.59375 C 3.0547031 9.83975 3.1685 10.043078 3.3125 10.205078 C 3.4565 10.367078 3.6299844 10.486453 3.8339844 10.564453 C 4.0379844 10.642453 4.2655781 10.681641 4.5175781 10.681641 C 4.7695781 10.681641 4.999125 10.642453 5.203125 10.564453 C 5.407125 10.486453 5.5806094 10.367078 5.7246094 10.205078 C 5.8686094 10.043078 5.9786406 9.83975 6.0566406 9.59375 C 6.1406406 9.34175 6.1835938 9.0431719 6.1835938 8.7011719 L 6.1835938 4.859375 L 6.7949219 4.859375 L 6.7949219 8.7832031 C 6.7949219 9.1252031 6.7539219 9.4460937 6.6699219 9.7460938 C 6.5919219 10.040094 6.4632031 10.297531 6.2832031 10.519531 C 6.1032031 10.741531 5.8662656 10.916969 5.5722656 11.042969 C 5.2842656 11.168969 4.9315781 11.230469 4.5175781 11.230469 C 4.1035781 11.230469 3.7510313 11.168969 3.4570312 11.042969 C 3.1690312 10.916969 2.9339063 10.741531 2.7539062 10.519531 C 2.5739063 10.297531 2.443375 10.040094 2.359375 9.7460938 C 2.281375 9.4460938 2.2421875 9.1252031 2.2421875 8.7832031 L 2.2421875 4.859375 z M 9.9335938 6.3535156 C 10.125594 6.3535156 10.304656 6.3684375 10.472656 6.3984375 C 10.646656 6.4284375 10.767984 6.4582812 10.833984 6.4882812 L 10.716797 6.9921875 C 10.668797 6.9681875 10.569922 6.9439219 10.419922 6.9199219 C 10.275922 6.8899219 10.08375 6.875 9.84375 6.875 C 9.59175 6.875 9.3884219 6.8936875 9.2324219 6.9296875 C 9.0824219 6.9656875 8.9835469 6.9955312 8.9355469 7.0195312 L 8.9355469 11.095703 L 8.3496094 11.095703 L 8.3496094 6.6582031 C 8.4996094 6.5922031 8.7067031 6.5269375 8.9707031 6.4609375 C 9.2347031 6.3889375 9.5555938 6.3535156 9.9335938 6.3535156 z M 11.792969 8.8417969 L 13.619141 8.8417969 L 13.619141 9.1757812 L 12.126953 9.1757812 C 12.123086 9.2498812 12.117208 9.3458906 12.109375 9.4628906 C 12.101575 9.5798906 12.093737 9.6994188 12.085938 9.8242188 C 12.078138 9.9451188 12.068341 10.062681 12.056641 10.175781 C 12.044941 10.288881 12.035144 10.379012 12.027344 10.445312 C 12.327644 10.453112 12.586287 10.490341 12.804688 10.556641 C 13.023087 10.622941 13.203351 10.711119 13.34375 10.824219 C 13.48415 10.937319 13.586044 11.074475 13.652344 11.234375 C 13.722544 11.394275 13.757812 11.572578 13.757812 11.767578 C 13.757812 11.939178 13.728422 12.097894 13.669922 12.246094 C 13.615322 12.394294 13.531063 12.523613 13.414062 12.632812 C 13.297063 12.742012 13.148149 12.828225 12.96875 12.890625 C 12.78935 12.953025 12.577731 12.984375 12.332031 12.984375 C 12.207231 12.984375 12.089669 12.974578 11.980469 12.955078 C 11.875169 12.939478 11.779159 12.919884 11.693359 12.896484 C 11.611459 12.873084 11.540922 12.849572 11.482422 12.826172 C 11.423922 12.802772 11.380816 12.783178 11.353516 12.767578 L 11.453125 12.427734 C 11.476525 12.443334 11.515712 12.462928 11.570312 12.486328 C 11.628813 12.509728 11.695431 12.533241 11.769531 12.556641 C 11.847531 12.576141 11.933744 12.593775 12.027344 12.609375 C 12.124844 12.624975 12.226731 12.632812 12.332031 12.632812 C 12.527031 12.632812 12.687706 12.611259 12.816406 12.568359 C 12.949006 12.521559 13.054813 12.458859 13.132812 12.380859 C 13.210812 12.302859 13.265675 12.212728 13.296875 12.111328 C 13.331975 12.006028 13.349609 11.894337 13.349609 11.773438 C 13.349609 11.617437 13.324137 11.476362 13.273438 11.351562 C 13.222737 11.226762 13.132606 11.120956 13.003906 11.035156 C 12.875206 10.949356 12.700822 10.884697 12.482422 10.841797 C 12.264022 10.794997 11.987744 10.771484 11.652344 10.771484 C 11.675744 10.572584 11.695337 10.392316 11.710938 10.228516 C 11.726537 10.060816 11.740253 9.9001469 11.751953 9.7480469 C 11.763653 9.5920469 11.771491 9.4431281 11.775391 9.2988281 C 11.783191 9.1506281 11.789069 8.9977969 11.792969 8.8417969 z "
     id="path4" />
</svg>

<svg xmlns="http://www.w3.org/2000/svg" viewBox="0 0 16 16">
 <path d="m 1.6 0 c -0.886 0 -1.6 0.713 -1.6 1.6 l 0 12.801 c 0 0.886 0.713 1.6 1.6 1.6 l 12.801 0 c 0.886 0 1.6 -0.713 1.6 -1.6 l 0 -12.801 c 0 -0.886 -0.713 -1.6 -1.6 -1.6 l -12.801 0 z m 0.643 4.859 l 0.611 0 l 0 3.842 c 0 0.342 0.039 0.641 0.117 0.893 c 0.084 0.246 0.198 0.449 0.342 0.611 c 0.144 0.162 0.317 0.281 0.521 0.359 c 0.204 0.078 0.432 0.117 0.684 0.117 c 0.252 0 0.482 -0.039 0.686 -0.117 c 0.204 -0.078 0.377 -0.197 0.521 -0.359 c 0.144 -0.162 0.254 -0.365 0.332 -0.611 c 0.084 -0.252 0.127 -0.551 0.127 -0.893 l 0 -3.842 l 0.611 0 l 0 3.924 c 0 0.342 -0.041 0.663 -0.125 0.963 c -0.078 0.294 -0.207 0.551 -0.387 0.773 c -0.18 0.222 -0.417 0.397 -0.711 0.523 c -0.288 0.126 -0.641 0.188 -1.055 0.188 c -0.414 0 -0.767 -0.061 -1.061 -0.188 c -0.288 -0.126 -0.523 -0.301 -0.703 -0.523 c -0.18 -0.222 -0.311 -0.479 -0.395 -0.773 c -0.078 -0.3 -0.117 -0.621 -0.117 -0.963 l 0 -3.924 z m 7.691 1.494 c 0.192 0 0.371 0.015 0.539 0.045 c 0.174 0.03 0.295 0.06 0.361 0.09 l -0.117 0.504 c -0.048 -0.024 -0.147 -0.048 -0.297 -0.072 c -0.144 -0.03 -0.336 -0.045 -0.576 -0.045 c -0.252 0 -0.455 0.019 -0.611 0.055 c -0.15 0.036 -0.249 0.066 -0.297 0.09 l 0 4.076 l -0.586 0 l 0 -4.437 c 0.15 -0.066 0.357 -0.131 0.621 -0.197 c 0.264 -0.072 0.585 -0.107 0.963 -0.107 z m 1.859 2.488 l 1.826 0 l 0 0.334 l -1.492 0 c -0.004 0.074 -0.01 0.17 -0.018 0.287 c -0.008 0.117 -0.016 0.237 -0.023 0.361 c -0.008 0.121 -0.018 0.238 -0.029 0.352 c -0.012 0.113 -0.021 0.203 -0.029 0.27 c 0.3 0.008 0.559 0.045 0.777 0.111 c 0.218 0.066 0.399 0.154 0.539 0.268 c 0.14 0.113 0.242 0.25 0.309 0.41 c 0.07 0.16 0.105 0.338 0.105 0.533 c 0 0.172 -0.029 0.33 -0.088 0.479 c -0.055 0.148 -0.139 0.278 -0.256 0.387 c -0.117 0.109 -0.266 0.195 -0.445 0.258 c -0.179 0.062 -0.391 0.094 -0.637 0.094 c -0.125 0 -0.242 -0.01 -0.352 -0.029 c -0.105 -0.016 -0.201 -0.035 -0.287 -0.059 c -0.082 -0.023 -0.152 -0.047 -0.211 -0.07 c -0.059 -0.023 -0.102 -0.043 -0.129 -0.059 l 0.1 -0.34 c 0.023 0.016 0.063 0.035 0.117 0.059 c 0.059 0.023 0.125 0.047 0.199 0.07 c 0.078 0.019 0.164 0.037 0.258 0.053 c 0.098 0.016 0.199 0.023 0.305 0.023 c 0.195 0 0.356 -0.022 0.484 -0.064 c 0.133 -0.047 0.238 -0.109 0.316 -0.188 c 0.078 -0.078 0.133 -0.168 0.164 -0.27 c 0.035 -0.105 0.053 -0.217 0.053 -0.338 c 0 -0.156 -0.025 -0.297 -0.076 -0.422 c -0.051 -0.125 -0.141 -0.231 -0.27 -0.316 c -0.129 -0.086 -0.303 -0.15 -0.521 -0.193 c -0.218 -0.047 -0.495 -0.07 -0.83 -0.07 c 0.023 -0.199 0.043 -0.379 0.059 -0.543 c 0.016 -0.168 0.029 -0.328 0.041 -0.48 c 0.012 -0.156 0.02 -0.305 0.023 -0.449 c 0.008 -0.148 0.014 -0.301 0.018 -0.457 z" style="fill:#ececec;fill-opacity:1"/>
</svg>
